X: 388
T:Golden Wedding
M:4/4
L:1/8
Z:Spencer Nitchie
K:G
GABc|:d2BG DGBd|gfge dBGB|c2A=F c2FA|cdcA =FAcA|
d2BG DGBd|gfge d2ef|gfge dege|1 dBAB GABc :|2 dBAB G z f z||
|g2ga gece|geae gage|a2ab afdf|afbf abaf|
g2ga gece|geae g2fg|afge dege|1 dBAB G z f z :|2 dBAB GABc ||

